packages/assets/static/images/icons/first-aid.svg

<svg width="24" height="24" viewBox="0 0 24 24" xmlns="http://www.w3.org/2000/svg">
<path d="M20.2498 8.25H15.7498V3.75C15.7498 3.35218 15.5917 2.97064 15.3104 2.68934C15.0291 2.40804 14.6476 2.25 14.2498 2.25H9.74976C9.35193 2.25 8.9704 2.40804 8.6891 2.68934C8.40779 2.97064 8.24976 3.35218 8.24976 3.75V8.25H3.74976C3.35193 8.25 2.9704 8.40804 2.6891 8.68934C2.40779 8.97064 2.24976 9.35218 2.24976 9.75V14.25C2.24976 14.6478 2.40779 15.0294 2.6891 15.3107C2.9704 15.592 3.35193 15.75 3.74976 15.75H8.24976V20.25C8.24976 20.6478 8.40779 21.0294 8.6891 21.3107C8.9704 21.592 9.35193 21.75 9.74976 21.75H14.2498C14.6476 21.75 15.0291 21.592 15.3104 21.3107C15.5917 21.0294 15.7498 20.6478 15.7498 20.25V15.75H20.2498C20.6476 15.75 21.0291 15.592 21.3104 15.3107C21.5917 15.0294 21.7498 14.6478 21.7498 14.25V9.75C21.7498 9.35218 21.5917 8.97064 21.3104 8.68934C21.0291 8.40804 20.6476 8.25 20.2498 8.25ZM20.2498 14.25H14.9998C14.8008 14.25 14.6101 14.329 14.4694 14.4697C14.3288 14.6103 14.2498 14.8011 14.2498 15V20.25H9.74976V15C9.74976 14.8011 9.67074 14.6103 9.53009 14.4697C9.38943 14.329 9.19867 14.25 8.99976 14.25H3.74976V9.75H8.99976C9.19867 9.75 9.38943 9.67098 9.53009 9.53033C9.67074 9.38968 9.74976 9.19891 9.74976 9V3.75H14.2498V9C14.2498 9.19891 14.3288 9.38968 14.4694 9.53033C14.6101 9.67098 14.8008 9.75 14.9998 9.75H20.2498V14.25Z"/>
</svg>

<svg viewBox="0 0 24 24" xmlns="http://www.w3.org/2000/svg" aria-hidden="true" fill="currentColor"><path d="M20.25 8.25h-4.5v-4.5a1.5 1.5 0 0 0-1.5-1.5h-4.5a1.5 1.5 0 0 0-1.5 1.5v4.5h-4.5a1.5 1.5 0 0 0-1.5 1.5v4.5a1.5 1.5 0 0 0 1.5 1.5h4.5v4.5a1.5 1.5 0 0 0 1.5 1.5h4.5a1.5 1.5 0 0 0 1.5-1.5v-4.5h4.5a1.5 1.5 0 0 0 1.5-1.5v-4.5a1.5 1.5 0 0 0-1.5-1.5m0 6H15a.75.75 0 0 0-.75.75v5.25h-4.5V15a.75.75 0 0 0-.75-.75H3.75v-4.5H9A.75.75 0 0 0 9.75 9V3.75h4.5V9a.75.75 0 0 0 .75.75h5.25z"/></svg>
